X: 36582
T: Shady Road To Clamper, The
R: polka
M: 2/4
K: Gmajor
|:G2 Bd|gf/g/ ed|G2 Bd|eB d2|
G2 Bd|gf/g/ ed|e/f/g/e/ dB|DE G2:|
|:Bd/A/ BA|Bd ed|Bd/A/ Bd|BG A2|
Bd/A/ BA|Bd ed|e/f/g/e/ dB|DE G2:|

